photo-results/edit_recipes/P1019672.xmp
<x:xmpmeta xmlns:x="adobe:ns:meta/" x:xmptk="photo-ai-toolkit">
 <rdf:RDF xmlns:rdf="http://www.w3.org/1999/02/22-rdf-syntax-ns#">
  <rdf:Description rdf:about=""
    xmlns:crs="http://ns.adobe.com/camera-raw-settings/1.0/"
    xmlns:pat="https://github.com/karasov-co/photo-ai-toolkit/ns/1.0/"
    crs:Version="15.0"
    crs:ProcessVersion="11.0"
    crs:Exposure2012="-0.10"
    crs:Contrast2012="0"
    crs:Highlights2012="-15"
    crs:Shadows2012="0"
    crs:Whites2012="0"
    crs:Blacks2012="0"
    crs:Texture="0"
    crs:Clarity2012="0"
    crs:Dehaze="0"
    crs:Vibrance="4"
    crs:Saturation="0"
    crs:LuminanceSmoothing="34"
    crs:ColorNoiseReduction="68"
    crs:Sharpness="20"
    crs:SharpenEdgeMasking="70"
    crs:ConvertToGrayscale="False"
    pat:temperatureDeltaK="-451"
    pat:tintDelta="14"
    crs:CropAngle="-3.20"
    pat:suggestedBy="photo-ai-toolkit"
    pat:variant="faithful"
    pat:intent="correct_only_what_limits_the_frame"
    pat:sourceChecksum="bafaf661c1da43a1023ed0b4689eee06efe7c209e2d317b09ea6ec5c7bf1139a"
    pat:engine="">
   <pat:preserve><rdf:Bag>

   </rdf:Bag></pat:preserve>
   <pat:warnings><rdf:Bag>

   </rdf:Bag></pat:warnings>
  </rdf:Description>
 </rdf:RDF>
</x:xmpmeta>
