photo-results/edit_recipes/P1019569.xmp
<x:xmpmeta xmlns:x="adobe:ns:meta/" x:xmptk="photo-ai-toolkit">
 <rdf:RDF xmlns:rdf="http://www.w3.org/1999/02/22-rdf-syntax-ns#">
  <rdf:Description rdf:about=""
    xmlns:crs="http://ns.adobe.com/camera-raw-settings/1.0/"
    xmlns:pat="https://github.com/karasov-co/photo-ai-toolkit/ns/1.0/"
    crs:Version="15.0"
    crs:ProcessVersion="11.0"
    crs:Exposure2012="+0.09"
    crs:Contrast2012="0"
    crs:Highlights2012="-15"
    crs:Shadows2012="0"
    crs:Whites2012="0"
    crs:Blacks2012="0"
    crs:Texture="0"
    crs:Clarity2012="0"
    crs:Dehaze="0"
    crs:Vibrance="4"
    crs:Saturation="0"
    crs:LuminanceSmoothing="0"
    crs:ColorNoiseReduction="0"
    crs:Sharpness="20"
    crs:SharpenEdgeMasking="48"
    crs:ConvertToGrayscale="False"
    pat:temperatureDeltaK="-24"
    crs:CropAngle="-6.20"
    pat:suggestedBy="photo-ai-toolkit"
    pat:variant="faithful"
    pat:intent="correct_only_what_limits_the_frame"
    pat:sourceChecksum="47b2708ed78abfa2c3554de6610f67d669e18ec53a6b7f10cb48f2c8a89ffb34"
    pat:engine="">
   <pat:preserve><rdf:Bag>

   </rdf:Bag></pat:preserve>
   <pat:warnings><rdf:Bag>

   </rdf:Bag></pat:warnings>
  </rdf:Description>
 </rdf:RDF>
</x:xmpmeta>
