photo-results/edit_recipes/P1019577.xmp
<x:xmpmeta xmlns:x="adobe:ns:meta/" x:xmptk="photo-ai-toolkit">
 <rdf:RDF xmlns:rdf="http://www.w3.org/1999/02/22-rdf-syntax-ns#">
  <rdf:Description rdf:about=""
    xmlns:crs="http://ns.adobe.com/camera-raw-settings/1.0/"
    xmlns:pat="https://github.com/karasov-co/photo-ai-toolkit/ns/1.0/"
    crs:Version="15.0"
    crs:ProcessVersion="11.0"
    crs:Exposure2012="+0.00"
    crs:Contrast2012="0"
    crs:Highlights2012="-15"
    crs:Shadows2012="0"
    crs:Whites2012="0"
    crs:Blacks2012="0"
    crs:Texture="0"
    crs:Clarity2012="0"
    crs:Dehaze="0"
    crs:Vibrance="4"
    crs:Saturation="0"
    crs:LuminanceSmoothing="3"
    crs:ColorNoiseReduction="6"
    crs:Sharpness="20"
    crs:SharpenEdgeMasking="49"
    crs:ConvertToGrayscale="False"
    pat:temperatureDeltaK="27"
    pat:tintDelta="1"
    crs:CropAngle="-2.80"
    pat:suggestedBy="photo-ai-toolkit"
    pat:variant="faithful"
    pat:intent="correct_only_what_limits_the_frame"
    pat:sourceChecksum="991c491fe817522c5b1f43d5e716a0d983db102d68428e733690fbdde2c9961c"
    pat:engine="">
   <pat:preserve><rdf:Bag>

   </rdf:Bag></pat:preserve>
   <pat:warnings><rdf:Bag>

   </rdf:Bag></pat:warnings>
  </rdf:Description>
 </rdf:RDF>
</x:xmpmeta>
