photo-results/edit_recipes/P1019545.xmp
<x:xmpmeta xmlns:x="adobe:ns:meta/" x:xmptk="photo-ai-toolkit">
 <rdf:RDF xmlns:rdf="http://www.w3.org/1999/02/22-rdf-syntax-ns#">
  <rdf:Description rdf:about=""
    xmlns:crs="http://ns.adobe.com/camera-raw-settings/1.0/"
    xmlns:pat="https://github.com/karasov-co/photo-ai-toolkit/ns/1.0/"
    crs:Version="15.0"
    crs:ProcessVersion="11.0"
    crs:Exposure2012="+0.36"
    crs:Contrast2012="0"
    crs:Highlights2012="-15"
    crs:Shadows2012="6"
    crs:Whites2012="0"
    crs:Blacks2012="-4"
    crs:Texture="0"
    crs:Clarity2012="0"
    crs:Dehaze="0"
    crs:Vibrance="4"
    crs:Saturation="0"
    crs:LuminanceSmoothing="16"
    crs:ColorNoiseReduction="32"
    crs:Sharpness="20"
    crs:SharpenEdgeMasking="58"
    crs:ConvertToGrayscale="False"
    pat:temperatureDeltaK="-345"
    pat:tintDelta="-1"
    crs:CropAngle="-1.80"
    pat:suggestedBy="photo-ai-toolkit"
    pat:variant="faithful"
    pat:intent="correct_only_what_limits_the_frame"
    pat:sourceChecksum="ba873857fcaf4a61e88469ab690444f0c9e8afc11e010c2da3ac7d541d409faf"
    pat:engine="">
   <pat:preserve><rdf:Bag>

   </rdf:Bag></pat:preserve>
   <pat:warnings><rdf:Bag>

   </rdf:Bag></pat:warnings>
  </rdf:Description>
 </rdf:RDF>
</x:xmpmeta>
