photo-results/edit_recipes/P1019631.xmp
<x:xmpmeta xmlns:x="adobe:ns:meta/" x:xmptk="photo-ai-toolkit">
 <rdf:RDF xmlns:rdf="http://www.w3.org/1999/02/22-rdf-syntax-ns#">
  <rdf:Description rdf:about=""
    xmlns:crs="http://ns.adobe.com/camera-raw-settings/1.0/"
    xmlns:pat="https://github.com/karasov-co/photo-ai-toolkit/ns/1.0/"
    crs:Version="15.0"
    crs:ProcessVersion="11.0"
    crs:Exposure2012="+0.91"
    crs:Contrast2012="0"
    crs:Highlights2012="-15"
    crs:Shadows2012="17"
    crs:Whites2012="0"
    crs:Blacks2012="-4"
    crs:Texture="0"
    crs:Clarity2012="0"
    crs:Dehaze="0"
    crs:Vibrance="4"
    crs:Saturation="0"
    crs:LuminanceSmoothing="37"
    crs:ColorNoiseReduction="74"
    crs:Sharpness="20"
    crs:SharpenEdgeMasking="72"
    crs:ConvertToGrayscale="False"
    pat:temperatureDeltaK="-264"
    pat:tintDelta="5"
    crs:CropAngle="-1.20"
    pat:suggestedBy="photo-ai-toolkit"
    pat:variant="faithful"
    pat:intent="open_the_frame_without_flattening_it"
    pat:sourceChecksum="1fb4ac36a417e5422b58d37b261d625a9525e1922dbd008802d0efd088a3385d"
    pat:engine="">
   <pat:preserve><rdf:Bag>

   </rdf:Bag></pat:preserve>
   <pat:warnings><rdf:Bag>

   </rdf:Bag></pat:warnings>
  </rdf:Description>
 </rdf:RDF>
</x:xmpmeta>
